; generated by PrusaSlicer 2.9.1 on 2025-03-28 at 18:04:17 UTC

; 

; external perimeters extrusion width = 0.42mm
; perimeters extrusion width = 0.44mm
; infill extrusion width = 0.44mm
; solid infill extrusion width = 0.44mm
; top infill extrusion width = 0.40mm
; first layer extrusion width = 0.42mm

M201 X500 Y500 Z100 E5000 ; sets maximum accelerations, mm/sec^2
M203 X500 Y500 Z10 E60 ; sets maximum feedrates, mm / sec
M204 S500 T1000 ; sets acceleration (S) and retract acceleration (R), mm/sec^2
M205 X8.00 Y8.00 Z0.40 E5.00 ; sets the jerk limits, mm/sec
M205 S0 T0 ; sets the minimum extruding and travel feed rate, mm/sec

; printing object Calefactor.STL id:0 copy 0
; stop printing object Calefactor.STL id:0 copy 0

;TYPE:Custom
G90 ; use absolute coordinates
M83 ; extruder relative mode
M104 S160 ; set temporary nozzle temp to prevent oozing during homing and auto bed leveling
M140 S70 ; set final bed temp
G4 S30 ; allow partial nozzle warmup
G28 ; home all axis
G29 ; auto bed levelling
G1 Z50 F240
G1 X2.0 Y10 F3000
M104 S240 ; set final nozzle temp
M190 S70 ; wait for bed temp to stabilize
M109 S240 ; wait for nozzle temp to stabilize
G1 Z0.28 F240
G92 E0
G1 X2.0 Y140 E10 F1500 ; prime the nozzle
G1 X2.3 Y140 F5000
G92 E0
G1 X2.3 Y10 E10 F1200 ; prime the nozzle
G92 E0
G21 ; set units to millimeters
G90 ; use absolute coordinates
M83 ; use relative distances for extrusion
; Filament gcode
M107
;LAYER_CHANGE
;Z:0.2
;HEIGHT:0.2
G1 E-5 F3600
G1 Z.4 F9000
G1 X104.008 Y105.001
G1 Z.2
G1 E5 F2400
M204 S500
;TYPE:Skirt/Brim
;WIDTH:0.42
G1 F1200
G1 X105.361 Y103.694 E.05898
G1 X107.267 Y102.289 E.07424
G1 X109.682 Y101.066 E.08488
G1 X111.136 Y100.558 E.04829
G1 X112.971 Y100.144 E.05898
G1 X114.439 Y99.987 E.04629
G1 X115.914 Y99.943 E.04627
G1 X117.45 Y100.056 E.04829
G1 X119.299 Y100.408 E.05902
G1 X121.858 Y101.291 E.08488
G1 X123.442 Y102.112 E.05594
G1 X124.997 Y103.171 E.05899
G1 X126.759 Y104.751 E.0742
G1 X128.449 Y106.867 E.08491
G1 X129.399 Y108.49 E.05896
G1 X130.11 Y110.127 E.05596
G1 X130.816 Y112.74 E.08487
G1 X131.018 Y114.267 E.0483
G1 X131.049 Y116.148 E.05899
G1 X130.775 Y118.5 E.07424
G1 X130.02 Y121.1 E.08489
G1 X129.399 Y122.509 E.04828
G1 X128.449 Y124.133 E.05899
G1 X127.971 Y124.81 E.02598
G1 X126.587 Y126.421 E.06659
G1 X125.456 Y127.466 E.04828
G1 X123.937 Y128.577 E.05901
G1 X121.545 Y129.845 E.08489
G1 X119.864 Y130.442 E.05593
G1 X118.029 Y130.856 E.05898
G1 X115.329 Y131.065 E.08491
G1 X113.55 Y130.944 E.05591
G1 X111.702 Y130.592 E.05898
G1 X109.142 Y129.709 E.08491
G1 X107.558 Y128.888 E.05594
G1 X106.003 Y127.829 E.05899
G1 X104.241 Y126.249 E.0742
G1 X102.552 Y124.133 E.08489
G1 X101.601 Y122.509 E.05901
G1 X100.891 Y120.873 E.05592
G1 X100.184 Y118.26 E.08487
G1 X99.983 Y116.733 E.04829
G1 X100.008 Y114.025 E.08491
G1 X100.353 Y111.929 E.0666
G1 X100.891 Y110.127 E.05896
G1 X101.601 Y108.491 E.05592
G1 X103.029 Y106.19 E.08491
G1 X103.97 Y105.047 E.04642
G1 X104.26 Y105.286 F9000
G1 F1200
G1 X104.283 Y105.258 E.00114
G1 X105.618 Y103.969 E.05819
G1 X107.463 Y102.612 E.07181
G1 X109.808 Y101.421 E.08247
G1 X111.238 Y100.921 E.0475
G1 X113.048 Y100.513 E.05818
G1 X114.465 Y100.363 E.04468
G1 X115.888 Y100.319 E.04464
G1 X117.399 Y100.43 E.0475
G1 X119.222 Y100.777 E.05819
G1 X121.708 Y101.637 E.08248
G1 X123.246 Y102.434 E.05431
G1 X124.779 Y103.479 E.05817
G1 X126.484 Y105.008 E.07181
G1 X128.126 Y107.063 E.08248
G1 X129.064 Y108.664 E.05818
G1 X129.754 Y110.253 E.05432
G1 X130.442 Y112.792 E.08248
G1 X130.641 Y114.293 E.04747
G1 X130.672 Y116.148 E.05817
G1 X130.405 Y118.423 E.07182
G1 X129.674 Y120.95 E.08248
G1 X129.064 Y122.336 E.04748
G1 X128.126 Y123.937 E.05818
G1 X127.678 Y124.572 E.02437
G1 X126.33 Y126.146 E.06498
G1 X125.218 Y127.174 E.04748
G1 X123.72 Y128.269 E.05818
G1 X121.394 Y129.499 E.0825
G1 X119.762 Y130.079 E.05431
G1 X117.952 Y130.487 E.05818
G1 X115.329 Y130.688 E.08248
G1 X113.601 Y130.57 E.05431
G1 X111.778 Y130.223 E.05819
G1 X109.292 Y129.363 E.08248
G1 X107.754 Y128.566 E.05431
G1 X106.221 Y127.521 E.05817
G1 X104.516 Y125.992 E.07181
G1 X102.874 Y123.937 E.08248
G1 X101.936 Y122.336 E.05818
G1 X101.246 Y120.747 E.05432
G1 X100.558 Y118.208 E.08248
G1 X100.359 Y116.707 E.04747
G1 X100.381 Y114.077 E.08246
G1 X100.716 Y112.031 E.06501
G1 X101.246 Y110.253 E.05817
G1 X101.936 Y108.664 E.05432
G1 X103.322 Y106.428 E.08248
G1 X104.222 Y105.332 E.04447
G1 E-3.5 F3600
;WIPE_START
G1 F7200
G1 X104.26 Y105.286 E-.02834
G1 X104.283 Y105.258 E-.01721
G1 X105.618 Y103.969 E-.88147
G1 X106.589 Y103.254 E-.57298
;WIPE_END
G1 Z.4 F9000
G1 X106.902 Y107.552
G1 Z.2
G1 E5 F2400
G1 F1200
G1 X106.949 Y107.495 E.00232
G1 X107.99 Y106.511 E.04491
G1 X109.571 Y105.398 E.06062
G1 X110.823 Y104.761 E.04404
G1 X112.164 Y104.271 E.04477
G1 X114.082 Y103.872 E.06143
G1 X115.481 Y103.787 E.04395
G1 X116.86 Y103.868 E.04331
G1 X118.633 Y104.214 E.05664
G1 X120.336 Y104.831 E.05679
G1 X121.596 Y105.498 E.0447
G1 X122.75 Y106.299 E.04404
G1 X124.184 Y107.639 E.06154
G1 X125.063 Y108.736 E.04408
G1 X125.815 Y109.949 E.04475
G1 X126.596 Y111.746 E.06143
G1 X126.964 Y113.098 E.04393
G1 X127.166 Y114.471 E.04351
G1 X127.173 Y116.476 E.06287
G1 X126.971 Y117.871 E.0442
G1 X126.598 Y119.246 E.04467
G1 X125.879 Y120.929 E.05738
G1 X124.958 Y122.41 E.05468
G1 X124.03 Y123.527 E.04553
G1 X122.984 Y124.511 E.04503
G1 X121.428 Y125.603 E.0596
G1 X120.156 Y126.248 E.04472
G1 X118.836 Y126.729 E.04405
G1 X116.907 Y127.129 E.06177
G1 X115.504 Y127.21 E.04406
G1 X114.101 Y127.13 E.04406
G1 X112.356 Y126.783 E.05578
G1 X110.663 Y126.168 E.05648
G1 X109.404 Y125.502 E.04466
G1 X108.25 Y124.701 E.04404
G1 X106.816 Y123.361 E.06154
G1 X105.925 Y122.246 E.04475
G1 X105.185 Y121.051 E.04407
G1 X104.404 Y119.254 E.06143
G1 X104.036 Y117.902 E.04393
G1 X103.834 Y116.529 E.04351
G1 X103.827 Y114.524 E.06287
G1 X104.03 Y113.129 E.0442
G1 X104.401 Y111.755 E.04462
G1 X105.107 Y110.099 E.05644
G1 X106.04 Y108.593 E.05555
G1 X106.863 Y107.599 E.04046
G1 X107.154 Y107.839 F9000
G1 F1200
G1 X107.232 Y107.745 E.00383
G1 X108.238 Y106.795 E.04338
G1 X109.754 Y105.728 E.05813
G1 X110.984 Y105.103 E.04326
G1 X112.28 Y104.63 E.04326
G1 X114.119 Y104.248 E.05889
G1 X115.47 Y104.164 E.04244
G1 X116.826 Y104.244 E.04259
G1 X118.546 Y104.581 E.05495
G1 X120.172 Y105.171 E.05423
G1 X121.39 Y105.815 E.0432
G1 X122.524 Y106.601 E.04326
G1 X123.899 Y107.885 E.05899
G1 X124.761 Y108.963 E.04328
G1 X125.487 Y110.136 E.04325
G1 X126.236 Y111.858 E.05888
G1 X126.593 Y113.164 E.04245
G1 X126.791 Y114.512 E.04272
G1 X126.798 Y116.435 E.06029
G1 X126.599 Y117.805 E.04341
G1 X126.238 Y119.135 E.04321
G1 X125.538 Y120.767 E.05568
G1 X124.66 Y122.179 E.05213
G1 X123.763 Y123.261 E.04407
G1 X122.736 Y124.227 E.04421
G1 X121.245 Y125.273 E.05711
G1 X120.016 Y125.898 E.04323
G1 X118.719 Y126.37 E.04328
G1 X116.871 Y126.753 E.05917
G1 X115.515 Y126.833 E.04259
G1 X114.136 Y126.754 E.04331
G1 X112.444 Y126.416 E.0541
G1 X110.828 Y125.829 E.05391
G1 X109.61 Y125.185 E.0432
G1 X108.476 Y124.399 E.04326
G1 X107.102 Y123.115 E.05896
G1 X106.239 Y122.038 E.04327
G1 X105.513 Y120.864 E.04328
G1 X104.764 Y119.142 E.05888
G1 X104.407 Y117.836 E.04245
G1 X104.209 Y116.488 E.04272
G1 X104.202 Y114.565 E.06029
G1 X104.401 Y113.195 E.04341
G1 X104.762 Y111.866 E.04318
G1 X105.448 Y110.26 E.05476
G1 X106.338 Y108.823 E.053
G1 X107.116 Y107.885 E.03821
G1 X107.405 Y108.125 F9000
G1 F1200
G1 X107.5 Y108.011 E.00465
G1 X108.488 Y107.078 E.04261
G1 X109.937 Y106.058 E.05556
G1 X111.144 Y105.444 E.04246
G1 X112.396 Y104.989 E.04177
G1 X114.156 Y104.623 E.05636
G1 X115.482 Y104.541 E.04166
G1 X116.79 Y104.619 E.04108
G1 X118.431 Y104.941 E.05243
G1 X120.007 Y105.511 E.05255
G1 X121.204 Y106.143 E.04244
G1 X122.297 Y106.903 E.04174
G1 X123.613 Y108.132 E.05646
G1 X124.459 Y109.189 E.04245
G1 X125.159 Y110.323 E.04178
G1 X125.876 Y111.971 E.05635
G1 X126.226 Y113.252 E.04164
G1 X126.416 Y114.554 E.04126
G1 X126.423 Y116.395 E.05772
G1 X126.232 Y117.717 E.04188
G1 X125.878 Y119.023 E.04243
G1 X125.21 Y120.581 E.05315
G1 X124.361 Y121.949 E.05048
G1 X123.48 Y123.011 E.04326
G1 X122.487 Y123.943 E.0427
G1 X121.062 Y124.943 E.05458
G1 X119.855 Y125.556 E.04245
G1 X118.603 Y126.011 E.04177
G1 X116.835 Y126.378 E.05662
G1 X115.503 Y126.456 E.04184
G1 X114.171 Y126.378 E.04184
G1 X112.559 Y126.056 E.05154
G1 X110.992 Y125.489 E.05225
G1 X109.796 Y124.857 E.04241
G1 X108.703 Y124.097 E.04174
G1 X107.387 Y122.868 E.05646
G1 X106.554 Y121.83 E.04173
G1 X105.841 Y120.677 E.04251
G1 X105.124 Y119.029 E.05635
G1 X104.774 Y117.748 E.04164
G1 X104.584 Y116.446 E.04126
G1 X104.577 Y114.605 E.05772
G1 X104.768 Y113.283 E.04188
G1 X105.122 Y111.978 E.0424
G1 X105.776 Y110.446 E.05223
G1 X106.637 Y109.054 E.05132
G1 X107.367 Y108.171 E.03592
G1 X107.658 Y108.412 F9000
G1 F1200
G1 X107.783 Y108.26 E.00617
G1 X108.736 Y107.362 E.04106
G1 X110.12 Y106.388 E.05306
G1 X111.284 Y105.794 E.04097
G1 X112.512 Y105.348 E.04096
G1 X114.193 Y104.999 E.05383
G1 X115.471 Y104.918 E.04015
G1 X116.755 Y104.995 E.04033
G1 X118.344 Y105.308 E.05078
G1 X119.843 Y105.85 E.04998
G1 X120.998 Y106.459 E.04094
G1 X122.071 Y107.205 E.04098
G1 X123.327 Y108.378 E.05388
G1 X124.145 Y109.397 E.04097
G1 X124.832 Y110.509 E.04098
G1 X125.516 Y112.083 E.05381
G1 X125.854 Y113.318 E.04015
G1 X126.041 Y114.595 E.04047
G1 X126.048 Y116.355 E.05518
G1 X125.861 Y117.652 E.04109
G1 X125.517 Y118.911 E.04092
G1 X124.882 Y120.394 E.05058
G1 X124.062 Y121.718 E.04883
G1 X123.214 Y122.744 E.04174
G1 X122.239 Y123.659 E.04192
G1 X120.879 Y124.613 E.05209
G1 X119.716 Y125.206 E.04093
G1 X118.487 Y125.652 E.04099
G1 X116.799 Y126.002 E.05405
G1 X115.492 Y126.079 E.04105
G1 X114.207 Y126.003 E.04036
G1 X112.647 Y125.69 E.04989
G1 X111.156 Y125.149 E.04973
G1 X110.002 Y124.541 E.0409
G1 X108.929 Y123.795 E.04098
G1 X107.673 Y122.622 E.05388
G1 X106.855 Y121.603 E.04097
G1 X106.169 Y120.491 E.04097
G1 X105.485 Y118.917 E.05381
G1 X105.146 Y117.681 E.04019
G1 X104.959 Y116.405 E.04044
G1 X104.952 Y114.645 E.05518
G1 X105.139 Y113.348 E.04109
G1 X105.483 Y112.09 E.04089
G1 X106.117 Y110.608 E.05054
G1 X106.936 Y109.284 E.04881
G1 X107.619 Y108.458 E.03361
G1 X107.909 Y108.697 F9000
G1 F1200
G1 X108.05 Y108.527 E.00693
G1 X108.985 Y107.645 E.0403
G1 X110.303 Y106.717 E.05054
G1 X111.424 Y106.145 E.03946
G1 X112.628 Y105.707 E.04017
G1 X114.23 Y105.374 E.0513
G1 X115.483 Y105.295 E.03936
G1 X116.72 Y105.371 E.03886
G1 X118.23 Y105.667 E.04825
G1 X119.679 Y106.19 E.0483
G1 X120.812 Y106.787 E.04015
G1 X121.844 Y107.507 E.03945
G1 X123.042 Y108.625 E.05138
G1 X123.83 Y109.606 E.03945
G1 X124.504 Y110.696 E.04018
G1 X125.156 Y112.196 E.05128
G1 X125.488 Y113.407 E.03937
G1 X125.666 Y114.636 E.03894
G1 X125.673 Y116.315 E.05264
G1 X125.494 Y117.564 E.03956
G1 X125.157 Y118.799 E.04014
G1 X124.553 Y120.208 E.04807
G1 X123.763 Y121.488 E.04716
G1 X122.946 Y122.478 E.04025
G1 X122.011 Y123.358 E.04026
G1 X120.696 Y124.283 E.05041
G1 X119.555 Y124.864 E.04015
G1 X118.372 Y125.293 E.03946
G1 X116.763 Y125.626 E.05152
G1 X115.504 Y125.702 E.03955
G1 X114.242 Y125.627 E.03964
G1 X112.761 Y125.33 E.04736
G1 X111.32 Y124.81 E.04803
G1 X110.188 Y124.213 E.04013
G1 X109.156 Y123.493 E.03945
G1 X107.958 Y122.375 E.05138
G1 X107.17 Y121.394 E.03945
G1 X106.497 Y120.304 E.04017
G1 X105.845 Y118.804 E.05128
G1 X105.512 Y117.593 E.03938
G1 X105.334 Y116.364 E.03894
G1 X105.327 Y114.685 E.05264
G1 X105.506 Y113.436 E.03956
G1 X105.843 Y112.201 E.04014
G1 X106.446 Y110.794 E.048
G1 X107.235 Y109.514 E.04715
G1 X107.871 Y108.743 E.03134
G1 X108.161 Y108.982 F9000
G1 F1200
G1 X108.318 Y108.792 E.00773
G1 X109.214 Y107.946 E.03864
G1 X110.487 Y107.047 E.04886
G1 X111.585 Y106.486 E.03866
G1 X112.744 Y106.067 E.03864
G1 X114.267 Y105.75 E.04878
G1 X115.472 Y105.672 E.03786
G1 X116.684 Y105.746 E.03807
G1 X118.143 Y106.035 E.04663
G1 X119.515 Y106.53 E.04573
G1 X120.606 Y107.103 E.03864
G1 X121.617 Y107.808 E.03865
G1 X122.756 Y108.872 E.04887
G1 X123.529 Y109.833 E.03867
G1 X124.175 Y110.882 E.03863
G1 X124.796 Y112.309 E.0488
G1 X125.116 Y113.473 E.03785
G1 X125.291 Y114.677 E.03815
G1 X125.297 Y116.276 E.05014
G1 X125.122 Y117.499 E.03874
G1 X124.797 Y118.687 E.03862
G1 X124.213 Y120.046 E.04638
G1 X123.464 Y121.258 E.04467
G1 X122.663 Y122.228 E.03944
G1 X121.763 Y123.074 E.03873
G1 X120.513 Y123.953 E.04791
G1 X119.416 Y124.514 E.03863
G1 X118.256 Y124.933 E.03867
G1 X116.727 Y125.251 E.04897
G1 X115.492 Y125.325 E.03879
G1 X114.279 Y125.251 E.0381
G1 X112.85 Y124.963 E.04571
G1 X111.484 Y124.47 E.04553
G1 X110.394 Y123.897 E.03861
G1 X109.383 Y123.192 E.03865
G1 X108.244 Y122.128 E.04887
G1 X107.471 Y121.167 E.03867
G1 X106.825 Y120.118 E.03863
G1 X106.205 Y118.691 E.04878
G1 X105.884 Y117.527 E.03786
G1 X105.709 Y116.323 E.03815
G1 X105.703 Y114.724 E.05014
G1 X105.878 Y113.501 E.03874
G1 X106.203 Y112.314 E.03859
G1 X106.774 Y110.979 E.04553
G1 X107.535 Y109.743 E.04551
G1 X108.123 Y109.029 E.029
G1 X108.414 Y109.268 F9000
G1 F1200
G1 X108.601 Y109.041 E.00922
G1 X109.463 Y108.229 E.03713
G1 X110.671 Y107.376 E.04637
G1 X111.724 Y106.837 E.03709
G1 X112.86 Y106.426 E.03788
G1 X114.305 Y106.125 E.04628
G1 X115.484 Y106.05 E.03704
G1 X116.648 Y106.122 E.03657
G1 X118.029 Y106.394 E.04413
G1 X119.352 Y106.87 E.04408
G1 X120.42 Y107.431 E.03783
G1 X121.39 Y108.11 E.03712
G1 X122.471 Y109.119 E.04636
G1 X123.214 Y110.041 E.03713
G1 X123.847 Y111.069 E.03785
G1 X124.436 Y112.422 E.04627
G1 X124.75 Y113.561 E.03704
G1 X124.916 Y114.718 E.03665
G1 X124.922 Y116.236 E.0476
G1 X124.755 Y117.411 E.03721
G1 X124.436 Y118.575 E.03784
G1 X123.884 Y119.861 E.04388
G1 X123.165 Y121.029 E.043
G1 X122.396 Y121.962 E.03791
G1 X121.514 Y122.79 E.03793
G1 X120.329 Y123.624 E.04543
G1 X119.255 Y124.173 E.03782
G1 X118.141 Y124.574 E.03712
G1 X116.69 Y124.875 E.04646
G1 X115.504 Y124.948 E.03726
G1 X114.314 Y124.876 E.03738
G1 X112.964 Y124.604 E.04318
G1 X111.648 Y124.13 E.04386
G1 X110.58 Y123.569 E.03783
G1 X109.61 Y122.89 E.03712
G1 X108.529 Y121.882 E.04634
G1 X107.773 Y120.941 E.03785
G1 X107.153 Y119.932 E.03713
G1 X106.565 Y118.578 E.04628
G1 X106.251 Y117.439 E.03704
G1 X106.084 Y116.282 E.03665
G1 X106.078 Y114.764 E.0476
G1 X106.245 Y113.589 E.03721
G1 X106.564 Y112.426 E.03781
G1 X107.103 Y111.165 E.043
G1 X107.834 Y109.973 E.04384
G1 X108.376 Y109.314 E.02675
G1 X108.667 Y109.553 F9000
G1 F1200
G1 X108.869 Y109.307 E.00998
G1 X109.712 Y108.513 E.03631
G1 X110.855 Y107.706 E.04387
G1 X111.885 Y107.178 E.03629
G1 X112.975 Y106.785 E.03633
G1 X114.343 Y106.501 E.04381
G1 X115.473 Y106.427 E.03551
G1 X116.612 Y106.497 E.03578
G1 X117.915 Y106.754 E.04164
G1 X119.188 Y107.21 E.0424
G1 X120.214 Y107.747 E.03631
G1 X121.163 Y108.411 E.03632
G1 X122.186 Y109.366 E.04388
G1 X122.913 Y110.268 E.03632
G1 X123.519 Y111.255 E.03631
G1 X124.076 Y112.536 E.0438
G1 X124.378 Y113.627 E.03549
G1 X124.541 Y114.758 E.03583
G1 X124.547 Y116.197 E.04512
G1 X124.384 Y117.346 E.03639
G1 X124.076 Y118.462 E.0363
G1 X123.543 Y119.699 E.04223
G1 X122.865 Y120.799 E.04051
G1 X122.113 Y121.712 E.03709
G1 X121.266 Y122.506 E.0364
G1 X120.146 Y123.294 E.04294
G1 X119.115 Y123.822 E.03632
G1 X118.026 Y124.215 E.0363
G1 X116.654 Y124.5 E.04394
G1 X115.492 Y124.571 E.0365
G1 X114.351 Y124.5 E.03584
G1 X113.053 Y124.237 E.04152
G1 X111.812 Y123.79 E.04136
G1 X110.786 Y123.253 E.03631
G1 X109.837 Y122.589 E.03632
G1 X108.814 Y121.634 E.04388
G1 X108.088 Y120.733 E.03628
G1 X107.481 Y119.746 E.03633
G1 X106.924 Y118.464 E.04383
G1 X106.622 Y117.373 E.03549
G1 X106.459 Y116.242 E.03583
G1 X106.453 Y114.803 E.04512
G1 X106.616 Y113.654 E.03639
G1 X106.924 Y112.538 E.0363
G1 X107.444 Y111.326 E.04135
G1 X108.134 Y110.202 E.04135
G1 X108.629 Y109.599 E.02446
G1 X108.92 Y109.839 F9000
G1 F1200
G1 X109.152 Y109.556 E.01147
G1 X109.96 Y108.797 E.03476
G1 X111.038 Y108.035 E.04139
G1 X112.047 Y107.519 E.03553
G1 X113.09 Y107.144 E.03475
G1 X114.38 Y106.876 E.04131
G1 X115.485 Y106.804 E.03472
G1 X116.576 Y106.873 E.03428
G1 X117.828 Y107.121 E.04002
G1 X119.025 Y107.55 E.03987
