; generated by PrusaSlicer 2.9.1 on 2025-03-28 at 18:01:15 UTC

; 

; external perimeters extrusion width = 0.42mm
; perimeters extrusion width = 0.44mm
; infill extrusion width = 0.44mm
; solid infill extrusion width = 0.44mm
; top infill extrusion width = 0.40mm
; support material extrusion width = 0.36mm
; first layer extrusion width = 0.42mm

; external perimeters extrusion width = 0.42mm
; perimeters extrusion width = 0.44mm
; infill extrusion width = 0.44mm
; solid infill extrusion width = 0.44mm
; top infill extrusion width = 0.40mm
; support material extrusion width = 0.36mm
; first layer extrusion width = 0.42mm

M201 X500 Y500 Z100 E5000 ; sets maximum accelerations, mm/sec^2
M203 X500 Y500 Z10 E60 ; sets maximum feedrates, mm / sec
M204 S500 T1000 ; sets acceleration (S) and retract acceleration (R), mm/sec^2
M205 X8.00 Y8.00 Z0.40 E5.00 ; sets the jerk limits, mm/sec
M205 S0 T0 ; sets the minimum extruding and travel feed rate, mm/sec

; printing object Tapa.STL id:1 copy 0
; stop printing object Tapa.STL id:1 copy 0
; printing object Tapa.STL id:0 copy 0
; stop printing object Tapa.STL id:0 copy 0

;TYPE:Custom
G90 ; use absolute coordinates
M83 ; extruder relative mode
M104 S200 ; set temporary nozzle temp to prevent oozing during homing and auto bed leveling
M140 S60 ; set final bed temp
G4 S30 ; allow partial nozzle warmup
G28 ; home all axis
G29 ; auto bed levelling
G1 Z50 F240
G1 X2.0 Y10 F3000
M104 S210 ; set final nozzle temp
M190 S60 ; wait for bed temp to stabilize
M109 S210 ; wait for nozzle temp to stabilize
G1 Z0.28 F240
G92 E0
G1 X2.0 Y140 E10 F1500 ; prime the nozzle
G1 X2.3 Y140 F5000
G92 E0
G1 X2.3 Y10 E10 F1200 ; prime the nozzle
G92 E0
G21 ; set units to millimeters
G90 ; use absolute coordinates
M83 ; use relative distances for extrusion
; Filament gcode
M107
;LAYER_CHANGE
;Z:0.2
;HEIGHT:0.2
G1 E-5 F3600
G1 Z.4 F9000
G1 X87.412 Y100.259
G1 Z.2
G1 E5 F2400
M204 S500
;TYPE:Skirt/Brim
;WIDTH:0.42
G1 F1200
G1 X89.168 Y98.912 E.06939
G1 X91.061 Y97.765 E.0694
G1 X93.234 Y96.773 E.0749
G1 X94.902 Y96.205 E.05525
G1 X96.886 Y95.74 E.06389
G1 X99.18 Y95.454 E.07248
G1 X130.812 Y95.413 E.9918
G1 X132.846 Y95.545 E.06391
G1 X134.585 Y95.831 E.05526
G1 X137.152 Y96.542 E.08352
G1 X138.947 Y97.271 E.06075
G1 X140.749 Y98.223 E.0639
G1 X142.729 Y99.559 E.07489
G1 X144.728 Y101.32 E.08353
G1 X146.093 Y102.832 E.06387
G1 X147.241 Y104.394 E.06078
G1 X148.56 Y106.708 E.08351
G1 X149.264 Y108.324 E.05527
G1 X149.891 Y110.263 E.0639
G1 X150.378 Y112.601 E.07488
G1 X150.583 Y115.257 E.08352
G1 X150.53 Y117.018 E.05524
G1 X150.27 Y119.039 E.06389
G1 X149.573 Y121.791 E.08901
G1 X148.951 Y123.44 E.05526
G1 X148.048 Y125.267 E.0639
G1 X146.604 Y127.505 E.08351
G1 X145.372 Y129.001 E.06076
G1 X143.925 Y130.436 E.0639
G1 X141.832 Y132.083 E.08351
G1 X139.939 Y133.23 E.0694
G1 X137.766 Y134.222 E.0749
G1 X135.852 Y134.859 E.06325
G1 X134.114 Y135.255 E.05589
G1 X131.82 Y135.541 E.07248
G1 X100.363 Y135.587 E.98631
G1 X98.428 Y135.48 E.06076
G1 X96.243 Y135.131 E.06938
G1 X94.109 Y134.543 E.0694
G1 X92.053 Y133.724 E.06939
G1 X90.099 Y132.684 E.0694
G1 X88.271 Y131.436 E.0694
G1 X86.592 Y129.993 E.06941
G1 X85.082 Y128.375 E.06939
G1 X83.759 Y126.601 E.06939
G1 X82.639 Y124.692 E.0694
G1 X81.803 Y122.834 E.06388
G1 X80.955 Y120.125 E.089
G1 X80.584 Y118.121 E.0639
G1 X80.417 Y115.914 E.0694
G1 X80.47 Y113.977 E.06076
G1 X80.759 Y111.782 E.06942
G1 X81.288 Y109.633 E.06939
G1 X82.049 Y107.555 E.06939
G1 X83.035 Y105.573 E.06941
G1 X83.819 Y104.336 E.04592
G1 X84.504 Y103.352 E.03759
G1 X85.938 Y101.665 E.06942
G1 X87.369 Y100.3 E.06201
G1 E-3.5 F3600
;WIPE_START
G1 F7200
G1 X87.412 Y100.259 E-.02822
G1 X89.168 Y98.912 E-1.05124
G1 X89.925 Y98.453 E-.42054
;WIPE_END
G1 Z.4 F9000
G1 X89.651 Y102.918
G1 Z.2
G1 E5 F2400
G1 F1200
G1 X91.06 Y101.829 E.05584
G1 X92.596 Y100.887 E.0565
G1 X94.207 Y100.124 E.05589
G1 X95.935 Y99.525 E.05734
G1 X97.724 Y99.119 E.05752
G1 X99.591 Y98.909 E.05891
G1 X101.555 Y98.92 E.06158
G1 X103.325 Y99.127 E.05588
G1 X105.129 Y99.543 E.05805
G1 X106.835 Y100.14 E.05667
G1 X108.443 Y100.906 E.05585
G1 X109.959 Y101.84 E.05583
G1 X111.382 Y102.944 E.05647
G1 X112.683 Y104.203 E.05676
G1 X113.911 Y105.691 E.06049
G1 X114.912 Y107.233 E.05764
G1 X115.474 Y108.351 E.03923
G1 X116.625 Y106.358 E.07216
G1 X117.76 Y104.833 E.0596
G1 X119.008 Y103.498 E.0573
G1 X120.358 Y102.337 E.05583
G1 X121.807 Y101.339 E.05517
G1 X123.372 Y100.49 E.05582
G1 X125.002 Y99.819 E.05527
G1 X126.736 Y99.315 E.05662
G1 X128.579 Y98.995 E.05865
G1 X130.341 Y98.884 E.05536
G1 X131.588 Y98.936 E.03913
G1 X132.486 Y99.003 E.02823
G1 X134.181 Y99.297 E.05394
G1 X136.04 Y99.835 E.06068
G1 X137.725 Y100.538 E.05725
G1 X139.285 Y101.397 E.05584
G1 X140.743 Y102.418 E.05581
G1 X142.039 Y103.546 E.05387
G1 X143.226 Y104.819 E.05457
G1 X144.38 Y106.37 E.06061
G1 X145.304 Y107.96 E.05766
G1 X146.07 Y109.706 E.05978
G1 X146.628 Y111.516 E.05939
G1 X146.953 Y113.205 E.05393
G1 X147.103 Y114.937 E.05451
G1 X147.058 Y116.833 E.05946
G1 X146.774 Y118.83 E.06324
G1 X146.322 Y120.549 E.05573
G1 X145.697 Y122.207 E.05556
G1 X144.835 Y123.892 E.05934
G1 X143.853 Y125.379 E.05587
G1 X142.718 Y126.752 E.05585
G1 X141.459 Y127.982 E.05519
G1 X140.09 Y129.061 E.05465
G1 X138.441 Y130.088 E.06091
G1 X136.696 Y130.911 E.06049
G1 X134.98 Y131.494 E.05682
G1 X133.197 Y131.889 E.05726
G1 X131.386 Y132.087 E.05712
G1 X129.614 Y132.087 E.05556
G1 X127.803 Y131.89 E.05712
G1 X126.04 Y131.5 E.05661
G1 X124.329 Y130.922 E.05663
G1 X122.672 Y130.15 E.05732
G1 X121.09 Y129.188 E.05805
G1 X119.635 Y128.065 E.05763
G1 X118.252 Y126.722 E.06044
G1 X117.116 Y125.339 E.05612
G1 X116.139 Y123.85 E.05584
G1 X115.499 Y122.6 E.04403
G1 X114.388 Y124.618 E.07223
G1 X113.316 Y126.071 E.05662
G1 X112.063 Y127.428 E.05791
G1 X110.717 Y128.599 E.05594
G1 X109.253 Y129.619 E.05595
G1 X107.669 Y130.485 E.0566
G1 X105.994 Y131.177 E.05682
G1 X104.075 Y131.722 E.06255
G1 X102.196 Y132.025 E.05968
G1 X100.371 Y132.111 E.05729
G1 X98.572 Y131.999 E.05652
G1 X96.817 Y131.698 E.05583
G1 X95.106 Y131.211 E.05578
G1 X93.465 Y130.548 E.05549
G1 X91.693 Y129.584 E.06325
G1 X90.192 Y128.526 E.05758
G1 X88.809 Y127.301 E.05793
G1 X87.652 Y126.029 E.05391
G1 X86.622 Y124.628 E.05452
G1 X85.706 Y123.054 E.0571
G1 X84.981 Y121.425 E.05591
G1 X84.435 Y119.726 E.05595
G1 X84.051 Y117.82 E.06096
G1 X83.893 Y115.919 E.05981
G1 X83.945 Y114.13 E.05612
G1 X84.194 Y112.324 E.05716
G1 X84.639 Y110.562 E.05698
G1 X85.272 Y108.86 E.05694
G1 X86.134 Y107.157 E.05985
G1 X87.207 Y105.535 E.06098
G1 X88.366 Y104.152 E.05658
G1 X89.607 Y102.96 E.05395
G1 X89.868 Y103.231 F9000
G1 F1200
G1 X89.889 Y103.21 E.00093
G1 X91.266 Y102.145 E.05458
G1 X92.767 Y101.223 E.05523
G1 X94.341 Y100.476 E.05463
G1 X96.028 Y99.891 E.05598
G1 X97.777 Y99.492 E.05625
G1 X99.625 Y99.285 E.05831
G1 X101.52 Y99.295 E.05942
G1 X103.251 Y99.497 E.05464
G1 X105.014 Y99.902 E.05672
G1 X106.7 Y100.492 E.05601
G1 X108.271 Y101.242 E.05458
G1 X109.752 Y102.156 E.05457
G1 X111.142 Y103.236 E.05519
G1 X112.399 Y104.451 E.05481
G1 X113.613 Y105.923 E.05982
G1 X114.59 Y107.43 E.05631
G1 X115.519 Y109.284 E.06502
G1 X115.981 Y108.227 E.03617
G1 X116.946 Y106.556 E.0605
G1 X118.043 Y105.082 E.05761
G1 X119.262 Y103.777 E.05599
G1 X120.581 Y102.642 E.05456
G1 X121.996 Y101.665 E.05391
G1 X123.525 Y100.835 E.05455
G1 X125.136 Y100.172 E.05462
G1 X126.831 Y99.68 E.05534
G1 X128.613 Y99.371 E.05671
G1 X130.355 Y99.261 E.05473
G1 X132.431 Y99.376 E.06519
G1 X134.106 Y99.666 E.0533
G1 X135.905 Y100.187 E.05872
G1 X137.553 Y100.873 E.05597
G1 X139.077 Y101.712 E.05455
G1 X140.503 Y102.709 E.05456
G1 X141.784 Y103.824 E.05325
G1 X142.943 Y105.068 E.05331
G1 X144.06 Y106.569 E.05866
G1 X144.963 Y108.121 E.0563
G1 X145.72 Y109.848 E.05912
G1 X146.26 Y111.598 E.05742
G1 X146.581 Y113.266 E.05326
G1 X146.726 Y114.959 E.05328
G1 X146.683 Y116.791 E.05746
G1 X146.407 Y118.745 E.06187
G1 X145.966 Y120.425 E.05446
G1 X145.348 Y122.064 E.05492
G1 X144.514 Y123.693 E.05738
G1 X143.556 Y125.147 E.0546
G1 X142.448 Y126.489 E.05457
G1 X141.217 Y127.692 E.05397
G1 X139.865 Y128.759 E.054
G1 X138.27 Y129.752 E.05891
G1 X136.565 Y130.557 E.05912
G1 X134.888 Y131.128 E.05555
G1 X133.146 Y131.516 E.05596
G1 X131.369 Y131.71 E.05605
G1 X129.632 Y131.71 E.05446
G1 X127.855 Y131.516 E.05605
G1 X126.151 Y131.14 E.05471
G1 X124.478 Y130.575 E.05537
G1 X122.858 Y129.823 E.056
G1 X121.312 Y128.883 E.05673
G1 X119.874 Y127.773 E.05696
G1 X118.523 Y126.46 E.05907
G1 X117.413 Y125.108 E.05485
G1 X116.46 Y123.653 E.05454
G1 X115.474 Y121.721 E.06801
G1 X114.936 Y122.931 E.04152
G1 X114.078 Y124.402 E.05339
G1 X113.032 Y125.823 E.05532
G1 X111.793 Y127.165 E.05727
G1 X110.478 Y128.308 E.05463
G1 X109.046 Y129.304 E.05469
G1 X107.498 Y130.149 E.0553
G1 X105.881 Y130.817 E.05486
G1 X104.004 Y131.352 E.0612
G1 X102.168 Y131.649 E.05831
G1 X100.383 Y131.734 E.05603
G1 X98.625 Y131.626 E.05522
G1 X96.911 Y131.332 E.05453
G1 X95.238 Y130.857 E.05453
G1 X93.635 Y130.211 E.05419
G1 X91.901 Y129.27 E.06186
G1 X90.434 Y128.236 E.05627
G1 X89.081 Y127.039 E.05664
G1 X87.938 Y125.783 E.05325
G1 X86.932 Y124.413 E.05329
G1 X86.037 Y122.873 E.05585
G1 X85.33 Y121.281 E.05462
G1 X84.797 Y119.621 E.05467
G1 X84.426 Y117.778 E.05895
G1 X84.27 Y115.899 E.05912
G1 X84.321 Y114.151 E.05483
G1 X84.566 Y112.386 E.05587
G1 X85.002 Y110.665 E.05567
G1 X85.613 Y109.021 E.05499
G1 X86.465 Y107.337 E.05917
G1 X87.503 Y105.769 E.05896
G1 X88.635 Y104.416 E.05531
G1 X89.825 Y103.272 E.05176
G1 X90.086 Y103.543 F9000
G1 F1200
G1 X90.129 Y103.502 E.00186
G1 X91.472 Y102.46 E.0533
G1 X92.938 Y101.559 E.05395
G1 X94.474 Y100.829 E.05332
G1 X96.123 Y100.256 E.05474
G1 X97.83 Y99.866 E.0549
G1 X99.659 Y99.661 E.05771
G1 X101.484 Y99.671 E.05722
G1 X103.177 Y99.867 E.05344
G1 X104.9 Y100.262 E.05542
G1 X106.566 Y100.845 E.05534
G1 X108.099 Y101.578 E.05328
G1 X109.546 Y102.471 E.05331
G1 X110.888 Y103.514 E.05329
G1 X112.115 Y104.699 E.05348
G1 X113.315 Y106.154 E.05913
G1 X114.268 Y107.626 E.05498
G1 X115.058 Y109.205 E.05536
G1 X115.476 Y110.33 E.03763
G1 X116.313 Y108.407 E.06576
G1 X117.267 Y106.755 E.05981
G1 X118.326 Y105.332 E.05562
G1 X119.516 Y104.056 E.05471
G1 X120.804 Y102.946 E.05331
G1 X122.185 Y101.992 E.05263
G1 X123.678 Y101.18 E.05329
G1 X125.269 Y100.525 E.05395
G1 X126.926 Y100.046 E.05408
G1 X128.647 Y99.746 E.05477
G1 X130.368 Y99.638 E.05407
G1 X131.55 Y99.689 E.0371
G1 X132.376 Y99.749 E.02597
G1 X134.031 Y100.036 E.05267
G1 X135.77 Y100.539 E.05676
G1 X137.38 Y101.208 E.05467
G1 X138.87 Y102.027 E.05331
G1 X140.263 Y103 E.05328
G1 X141.515 Y104.088 E.05201
G1 X142.66 Y105.318 E.05269
G1 X143.739 Y106.768 E.05667
G1 X144.622 Y108.283 E.05498
G1 X145.371 Y109.989 E.05842
G1 X145.891 Y111.679 E.05544
G1 X146.209 Y113.328 E.05266
G1 X146.349 Y114.981 E.05201
G1 X146.308 Y116.749 E.05545
G1 X146.039 Y118.66 E.06051
G1 X145.61 Y120.302 E.05321
G1 X144.998 Y121.921 E.05427
G1 X144.194 Y123.494 E.05539
G1 X143.246 Y124.931 E.05398
G1 X142.163 Y126.241 E.05329
G1 X140.961 Y127.415 E.05268
G1 X139.64 Y128.456 E.05273
G1 X138.099 Y129.416 E.05693
G1 X136.413 Y130.211 E.05845
G1 X134.777 Y130.768 E.05419
G1 X133.074 Y131.145 E.05469
G1 X131.351 Y131.333 E.05434
G1 X129.649 Y131.334 E.05337
G1 X127.926 Y131.146 E.05434
G1 X126.242 Y130.774 E.05407
G1 X124.609 Y130.221 E.05406
G1 X123.027 Y129.485 E.05471
G1 X121.516 Y128.567 E.05543
G1 X120.129 Y127.495 E.05496
G1 X118.793 Y126.197 E.0584
G1 X117.712 Y124.877 E.0535
G1 X116.781 Y123.455 E.05329
G1 X116 Y121.922 E.05394
G1 X115.524 Y120.674 E.04188
G1 X114.605 Y122.75 E.07118
G1 X113.757 Y124.204 E.05278
G1 X112.747 Y125.575 E.05339
G1 X111.538 Y126.887 E.05594
G1 X110.254 Y128.004 E.05336
G1 X108.856 Y128.978 E.05342
G1 X107.344 Y129.805 E.05404
G1 X105.747 Y130.465 E.05418
G1 X103.911 Y130.986 E.05984
G1 X102.139 Y131.272 E.05628
G1 X100.396 Y131.357 E.05472
G1 X98.679 Y131.252 E.05394
G1 X97.004 Y130.967 E.05327
G1 X95.369 Y130.504 E.05328
G1 X93.805 Y129.874 E.05287
G1 X92.109 Y128.955 E.06048
G1 X90.676 Y127.947 E.05493
G1 X89.353 Y126.778 E.05536
G1 X88.236 Y125.551 E.05203
G1 X87.242 Y124.198 E.05264
G1 X86.368 Y122.693 E.05457
G1 X85.679 Y121.138 E.05333
G1 X85.16 Y119.516 E.0534
G1 X84.801 Y117.736 E.05693
G1 X84.647 Y115.878 E.05846
G1 X84.698 Y114.173 E.05348
G1 X84.934 Y112.468 E.05397
G1 X85.359 Y110.786 E.0544
G1 X85.954 Y109.182 E.05364
G1 X86.797 Y107.517 E.05851
G1 X87.799 Y106.003 E.05693
G1 X88.904 Y104.681 E.05402
G1 X90.042 Y103.585 E.04954
G1 X90.303 Y103.856 F9000
G1 F1200
G1 X90.368 Y103.794 E.00282
G1 X91.679 Y102.776 E.05204
G1 X93.109 Y101.895 E.05266
G1 X94.608 Y101.182 E.05205
G1 X96.217 Y100.621 E.05343
G1 X97.882 Y100.24 E.05355
G1 X99.677 Y100.037 E.05664
G1 X101.465 Y100.047 E.05606
G1 X103.123 Y100.24 E.05234
G1 X104.805 Y100.627 E.05412
G1 X106.432 Y101.197 E.05405
G1 X107.91 Y101.904 E.05137
G1 X109.322 Y102.775 E.05202
G1 X110.633 Y103.792 E.05202
G1 X111.846 Y104.963 E.05286
G1 X113.017 Y106.385 E.05776
G1 X113.946 Y107.822 E.05365
G1 X114.716 Y109.364 E.05404
G1 X115.36 Y111.192 E.06077
G1 X115.644 Y111.199 E.00891
G1 X115.99 Y110.094 E.03631
G1 X116.645 Y108.586 E.05155
G1 X117.588 Y106.953 E.05913
G1 X118.622 Y105.565 E.05427
G1 X119.77 Y104.335 E.05275
G1 X121.042 Y103.239 E.05265
G1 X122.391 Y102.308 E.05139
G1 X123.831 Y101.524 E.05141
G1 X125.403 Y100.877 E.0533
G1 X127.02 Y100.411 E.05276
G1 X128.681 Y100.122 E.05286
G1 X130.382 Y100.015 E.05344
G1 X132.321 Y100.123 E.06089
G1 X133.957 Y100.406 E.05206
G1 X135.635 Y100.892 E.05477
G1 X137.208 Y101.544 E.05339
G1 X138.662 Y102.342 E.052
G1 X140.023 Y103.291 E.05202
G1 X141.26 Y104.366 E.05138
G1 X142.377 Y105.567 E.05143
G1 X143.419 Y106.967 E.05472
G1 X144.281 Y108.444 E.05362
G1 X145.021 Y110.131 E.05776
G1 X145.523 Y111.76 E.05345
G1 X145.834 Y113.37 E.05141
G1 X145.973 Y115.003 E.05139
G1 X145.933 Y116.708 E.05347
G1 X145.672 Y118.575 E.05911
G1 X145.253 Y120.178 E.05195
G1 X144.649 Y121.778 E.05362
G1 X143.873 Y123.295 E.05343
G1 X142.949 Y124.699 E.0527
G1 X141.892 Y125.979 E.05205
G1 X140.72 Y127.125 E.0514
G1 X139.415 Y128.154 E.05211
G1 X137.928 Y129.079 E.05491
G1 X136.262 Y129.866 E.05777
G1 X134.665 Y130.407 E.05287
G1 X133.023 Y130.771 E.05273
G1 X131.333 Y130.957 E.05331
G1 X129.667 Y130.957 E.05224
G1 X127.997 Y130.775 E.05267
G1 X126.334 Y130.408 E.0534
G1 X124.74 Y129.868 E.05277
G1 X123.214 Y129.157 E.05279
G1 X121.738 Y128.261 E.05414
G1 X120.384 Y127.218 E.05359
G1 X119.064 Y125.934 E.05774
G1 X118.01 Y124.646 E.05218
G1 X117.102 Y123.257 E.05203
G1 X116.341 Y121.76 E.05265
G1 X115.645 Y119.793 E.06542
G1 X115.361 Y119.785 E.00891
G1 X114.967 Y121.014 E.04047
G1 X114.274 Y122.569 E.05338
G1 X113.437 Y124.005 E.05211
G1 X112.45 Y125.343 E.05213
G1 X111.282 Y126.61 E.05403
G1 X110.029 Y127.701 E.05209
G1 X108.666 Y128.652 E.05211
G1 X107.172 Y129.469 E.05339
G1 X105.613 Y130.112 E.05288
G1 X103.819 Y130.62 E.05846
G1 X102.11 Y130.896 E.05428
G1 X100.408 Y130.98 E.05343
G1 X98.731 Y130.879 E.05268
G1 X97.096 Y130.601 E.052
G1 X95.5 Y130.15 E.052
G1 X93.975 Y129.538 E.05152
G1 X92.316 Y128.64 E.05915
G1 X90.917 Y127.657 E.05361
G1 X89.625 Y126.516 E.05405
G1 X88.521 Y125.305 E.05138
G1 X87.552 Y123.984 E.05137
G1 X86.7 Y122.513 E.0533
G1 X86.028 Y120.995 E.05205
G1 X85.522 Y119.411 E.05214
G1 X85.176 Y117.693 E.05495
G1 X85.023 Y115.858 E.05773
G1 X85.074 Y114.195 E.05217
G1 X85.306 Y112.531 E.05268
G1 X85.717 Y110.907 E.05252
G1 X86.296 Y109.342 E.05232
G1 X87.128 Y107.697 E.0578
G1 X88.095 Y106.236 E.05493
G1 X89.173 Y104.945 E.05273
G1 X90.26 Y103.897 E.04734
G1 X90.521 Y104.168 F9000
G1 F1200
G1 X90.607 Y104.085 E.00375
G1 X91.886 Y103.092 E.05077
G1 X93.281 Y102.231 E.0514
G1 X94.742 Y101.534 E.05075
G1 X96.312 Y100.986 E.05214
G1 X97.936 Y100.613 E.05225
G1 X99.695 Y100.414 E.0555
G1 X101.445 Y100.424 E.05487
G1 X103.069 Y100.613 E.05126
G1 X104.69 Y100.986 E.05215
G1 X106.278 Y101.542 E.05275
G1 X107.721 Y102.231 E.05014
G1 X109.1 Y103.08 E.05078
G1 X110.379 Y104.071 E.05073
